X: 17
T: Maid Behind The Bar, The
Z: shanachie
S: https://thesession.org/tunes/64#setting48835
R: reel
M: 4/4
L: 1/8
K: Dmaj
"D"FAAB AFED|"D"FAAB A2de|"Bm"fBBA Bcde|"G"fBBA "A"BcdA|
"D"FAAB AFED|"D"FAAF ABde|"Bm"fBBA BcdB|"A"AFEF "D"D3E|
"D"FAAB AFED|"D"FAAB A2de|"Bm"fBB2 gBB2|"G"aBB2 "A"gBBA|
"D"FAAB AFED|"D"FAAB ABde|"Bm"fBBA BcdB|"A"AFEF "D"D4||
|:"D"faag fdde|"D"fdad fddf|"Em"efga beef|"G"gebe "A"geeg|
"D"faaf bfaf|"D"defd e2de|"Bm"fBBA BcdB|1 "A"AFEF "D"D3e:|2 "A"AFEF "D"D3E||

